; HEADER_BLOCK_START
; generated by OrcaSlicer 2.3.1 on 2025-11-17 at 20:38:58
; total layer number: 55
; filament_density: 1.27
; filament_diameter: 1.75
; max_z_height: 11.05
; HEADER_BLOCK_END

; THUMBNAIL_BLOCK_START

;
; THUMBNAIL_BLOCK_END

; THUMBNAIL_BLOCK_START

;
; THUMBNAIL_BLOCK_END

; THUMBNAIL_BLOCK_START

;
; THUMBNAIL_BLOCK_END

; external perimeters extrusion width = 0.42mm
; perimeters extrusion width = 0.45mm
; infill extrusion width = 0.45mm
; solid infill extrusion width = 0.50mm
; top infill extrusion width = 0.45mm
; first layer extrusion width = 0.50mm

; external perimeters extrusion width = 0.42mm
; perimeters extrusion width = 0.45mm
; infill extrusion width = 0.45mm
; solid infill extrusion width = 0.50mm
; top infill extrusion width = 0.45mm
; first layer extrusion width = 0.50mm

; EXECUTABLE_BLOCK_START
EXCLUDE_OBJECT_DEFINE NAME=sv08-btt-eddy-mount_rap-v307low-alignment-piece.stl_id_0_copy_0 CENTER=175,175 POLYGON=[[170,171],[172,168.5],[179.5,173.5],[180,174],[180,178],[179.25,181],[178.75,181.5],[176.25,181.5],[172.5,178.5],[170,176],[170,171]]
EXCLUDE_OBJECT_DEFINE NAME=sv08-btt-eddy-mount_rap-v307low-main-body.stl_id_1_copy_0 CENTER=150.886,176.079 POLYGON=[[139.811,169.329],[140.311,168.829],[161.461,168.829],[161.961,169.329],[161.961,170.812],[161.961,181.346],[161.961,182.829],[161.461,183.329],[140.311,183.329],[139.811,182.829],[139.811,169.329]]
M73 P0 R5
;TYPE:Custom
SET_PRINT_STATS_INFO TOTAL_LAYER=55
M104 S0
M140 S0
PRINT_START EXTRUDER=250 BED=75 LAYER=0.2 FILAMENT=PETG EXCLUDE=1 SURFACE="High Temp Plate" OAPA=0
G90
G21
M83 ; use relative distances for extrusion
; Filament gcode
SET_PRESSURE_ADVANCE ADVANCE=0.044; Override pressure advance value
M106 S0
;LAYER_CHANGE
;Z:0.25
;HEIGHT:0.25
TIMELAPSE_TAKE_FRAME
;BEFORE_LAYER_CHANGE
;0.25
G92 E0
G1 E-.3 F1800
;AFTER_LAYER_CHANGE
;0.25
SET_PRINT_STATS_INFO CURRENT_LAYER=1
M117 Layer 1/55 : Sunlu PETG
;_SET_FAN_SPEED_CHANGING_LAYER
SET_VELOCITY_LIMIT ACCEL=3000 ACCEL_TO_DECEL=1500
; printing object sv08-btt-eddy-mount_rap-v307low-alignment-piece.stl id:0 copy 0
EXCLUDE_OBJECT_START NAME=sv08-btt-eddy-mount_rap-v307low-alignment-piece.stl_id_0_copy_0
G1 Z.65 F36000
G1 X175.651 Y174.225
G1 Z.65
G1 Z.25
G1 E.3 F1800
_DEMON_ADAPTIVE_PA TYPE=ExternalPerimeter
;TYPE:Outer wall
;WIDTH:0.5
G1 X179.275 Y174.225 E.16643
G1 X179.275 Y177.775 E.16305
G1 X172.35 Y177.775 E.31806
G1 X172.35 Y172.063 E.26236
G1 X172.316 Y171.057 E.04621
G1 X172.25 Y170.567 E.02272
G1 X172.25 Y170.1 E.02145
G1 X172.429 Y170.037 E.00872
G1 X172.548 Y170.185 E.00873
G1 X173.018 Y170.893 E.03901
G1 X173.29 Y171.267 E.02126
G1 X175.639 Y174.209 E.17292
G1 X175.385 Y174.606 F36000
_DEMON_ADAPTIVE_PA TYPE=Perimeter
;TYPE:Inner wall
G1 F1800
G1 X175.437 Y174.671 E.00382
G1 X178.829 Y174.671 E.15579
G1 X178.829 Y177.329 E.12205
G1 X172.796 Y177.329 E.27706
G1 X172.796 Y172.055 E.2422
M73 P0 R4
G1 X172.782 Y171.64 E.01908
G1 X172.964 Y171.573 E.00888
G1 X175.372 Y174.591 E.17733
G1 X175.388 Y175.118 F36000
G1 F1800
G1 X178.382 Y175.118 E.13753
G1 X178.382 Y176.882 E.08105
G1 X173.243 Y176.882 E.23606
G1 X173.242 Y172.925 E.18173
G1 X173.422 Y172.863 E.00873
G1 X175.222 Y175.118 E.13252
G1 X175.368 Y175.118 E.00671
G1 X174.851 Y175.369 F36000
G1 F1800
G1 X175.007 Y175.564 E.01145
G1 X177.936 Y175.564 E.13453
M73 P1 R4
G1 X177.936 Y176.436 E.04005
G1 X173.689 Y176.436 E.19506
G1 X173.689 Y174.2 E.10269
G1 X173.868 Y174.137 E.00873
G1 X174.839 Y175.354 E.07147
G1 X175.069 Y176 F36000
_DEMON_ADAPTIVE_PA TYPE=GapFill
;TYPE:Gap infill
;WIDTH:0.479206
G1 F1800
G1 X177.713 Y176 E.11575
;WIPE_START
G1 X175.713 Y176 E-.3
;WIPE_END
G1 Z.65 F36000
G1 X174.802 Y176.302 Z.65
G1 Z.25
G1 E.3 F1800
_DEMON_ADAPTIVE_PA TYPE=BottomSurface
;TYPE:Bottom surface
;WIDTH:0.536243
G1 F5400
G1 X173.823 Y175.323 E.06876
;WIPE_START
G1 X174.802 Y176.302 E-.3
;WIPE_END
G1 Z.65 F36000
G1 X172.509 Y170.55 Z.65
G1 Z.25
G1 E.3 F1800
_DEMON_ADAPTIVE_PA TYPE=GapFill
;TYPE:Gap infill
;WIDTH:0.330333
G1 X172.803 Y171.395 E.02547
G1 X172.797 Y171.397 F36000
;WIDTH:0.377469
G1 F1800
G1 X172.515 Y170.548 E.02982
; stop printing object sv08-btt-eddy-mount_rap-v307low-alignment-piece.stl id:0 copy 0
; printing object sv08-btt-eddy-mount_rap-v307low-main-body.stl id:1 copy 0
;WIPE_START
G1 X172.797 Y171.397 E-.3
;WIPE_END
EXCLUDE_OBJECT_END NAME=sv08-btt-eddy-mount_rap-v307low-alignment-piece.stl_id_0_copy_0
EXCLUDE_OBJECT_START NAME=sv08-btt-eddy-mount_rap-v307low-main-body.stl_id_1_copy_0
G1 Z.65 F36000
G1 X159.829 Y182.673 Z.65
G1 Z.25
G1 E.3 F1800
_DEMON_ADAPTIVE_PA TYPE=ExternalPerimeter
;TYPE:Outer wall
;WIDTH:0.525846
G1 X159.504 Y182.726 E.01601
;WIDTH:0.494856
G1 X159.236 Y182.738 E.01218
;WIDTH:0.474175
G1 X158.736 Y182.532 E.0234
;WIPE_START
G1 X159.236 Y182.738 E-.3
;WIPE_END
G1 Z.65 F36000
G1 X159.689 Y169.641 Z.65
G1 Z.25
G1 E.3 F1800
;WIDTH:0.455625
G1 X159.211 Y169.424 E.02172
G1 X158.728 Y169.641 E.02191
;WIPE_START
G1 X159.211 Y169.424 E-.15063
G1 X159.689 Y169.641 E-.14937
;WIPE_END
G1 Z.65 F36000
G1 X160.042 Y182.51 Z.65
G1 Z.25
G1 E.3 F1800
;WIDTH:0.5
G1 X160.117 Y182.463 E.00406
G1 X160.556 Y182.017 E.02874
G1 X160.7 Y181.685 E.01663
G1 X160.757 Y181.338 E.01616
G1 X160.723 Y180.987 E.01619
G1 X160.61 Y180.656 E.01604
G1 X160.425 Y180.361 E.01599
G1 X160.179 Y180.115 E.01597
G1 X159.884 Y179.93 E.016
G1 X159.556 Y179.815 E.01594
G1 X159.21 Y179.777 E.01602
G1 X158.867 Y179.816 E.01585
G1 X158.54 Y179.931 E.01593
G1 X158.246 Y180.119 E.01603
G1 X157.997 Y180.384 E.01667
G1 X157.829 Y180.684 E.01581
G1 X157.751 Y181.02 E.01585
G1 X157.733 Y181.333 E.0144
G1 X157.76 Y181.654 E.01477
G1 X157.872 Y181.988 E.01621
G1 X158.086 Y182.243 E.01526
G1 X158.549 Y182.704 E.03003
G1 X158.035 Y182.704 E.02364
G1 X157.547 Y182.638 E.02261
G1 X156.546 Y182.604 E.04598
G1 X140.536 Y182.604 E.73534
G1 X140.536 Y169.554 E.59937
G1 X156.546 Y169.554 E.73534
M73 P2 R4
G1 X157.547 Y169.52 E.04598
G1 X158.035 Y169.454 E.02261
G1 X158.543 Y169.454 E.02335
G1 X157.867 Y170.14 E.04424
G1 X157.725 Y170.468 E.01644
G1 X157.665 Y170.82 E.01639
G1 X157.698 Y171.168 E.01602
G1 X157.813 Y171.502 E.01623
G1 X157.996 Y171.795 E.01589
G1 X158.25 Y172.047 E.01642
G1 X158.533 Y172.225 E.01535
G1 X158.869 Y172.343 E.01634
G1 X159.211 Y172.381 E.01582
G1 X159.556 Y172.342 E.01592
G1 X159.883 Y172.228 E.0159
G1 X160.178 Y172.044 E.01599
G1 X160.429 Y171.791 E.01637
G1 X160.609 Y171.504 E.01556
G1 X160.724 Y171.169 E.01627
G1 X160.757 Y170.82 E.01611
G1 X160.699 Y170.473 E.01616
G1 X160.556 Y170.141 E.01658
G1 X159.879 Y169.454 E.04431
G1 X160.46 Y169.454 E.0267
G1 X160.945 Y169.52 E.02247
G1 X161.238 Y169.536 E.01349
G1 X161.238 Y182.622 E.60099
G1 X160.945 Y182.638 E.01349
G1 X160.46 Y182.704 E.02247
G1 X160.098 Y182.704 E.01663
G1 X160.048 Y182.53 E.00834
;WIPE_START
G1 X160.117 Y182.463 E-.01438
G1 X160.556 Y182.017 E-.09387
G1 X160.7 Y181.685 E-.05431
G1 X160.757 Y181.338 E-.05277
G1 X160.723 Y180.987 E-.05288
G1 X160.654 Y180.786 E-.03179
;WIPE_END
G1 Z.65 F36000
G1 X160.792 Y180.097 Z.65
G1 Z.25
G1 E.3 F1800
_DEMON_ADAPTIVE_PA TYPE=Perimeter
;TYPE:Inner wall
G1 X160.459 Y179.764 E.02162
G1 X160.079 Y179.525 E.02062
G1 X159.656 Y179.377 E.02057
G1 X159.209 Y179.328 E.02065
G1 X158.766 Y179.378 E.02049
G1 X158.343 Y179.527 E.02062
G1 X157.802 Y179.872 E.02945
G1 X157.808 Y174.283 E.25673
G1 X153.714 Y174.283 E.188
G1 X153.714 Y182.158 E.3617
G1 X140.982 Y182.158 E.58478
G1 X140.982 Y170 E.55837
M73 P3 R4
G1 X156.554 Y170 E.71519
G1 X157.455 Y169.97 E.0414
G1 X157.294 Y170.341 E.01856
G1 X157.215 Y170.804 E.02159
G1 X157.259 Y171.262 E.02114
G1 X157.407 Y171.695 E.02101
G1 X157.645 Y172.076 E.02062
G1 X157.971 Y172.399 E.02106
G1 X158.338 Y172.63 E.01992
G1 X158.769 Y172.781 E.02097
G1 X159.212 Y172.83 E.02045
G1 X159.655 Y172.78 E.02052
G1 X160.077 Y172.633 E.0205
G1 X160.458 Y172.395 E.02066
G1 X160.792 Y172.059 E.02175
G1 X160.792 Y180.077 E.36828
;WIPE_START
G1 X160.459 Y179.764 E-.06851
G1 X160.079 Y179.525 E-.06736
G1 X159.656 Y179.377 E-.06718
G1 X159.209 Y179.328 E-.06744
G1 X159.014 Y179.35 E-.02951
;WIPE_END
G1 Z.65 F36000
G1 X160.346 Y179.146 Z.65
G1 Z.25
G1 E.3 F1800
G1 X159.756 Y178.939 E.02869
G1 X159.209 Y178.878 E.02528
G1 X158.666 Y178.94 E.02512
G1 X158.25 Y179.087 E.02026
G1 X158.255 Y173.836 E.24114
G1 X153.268 Y173.836 E.22902
G1 X153.268 Y181.712 E.3617
G1 X141.428 Y181.711 E.54378
G1 X141.428 Y170.447 E.51737
G1 X156.825 Y170.438 E.70713
M73 P4 R4
G1 X156.766 Y170.788 E.01632
G1 X156.82 Y171.357 E.02626
G1 X157.002 Y171.888 E.02579
G1 X157.294 Y172.356 E.02535
G1 X157.691 Y172.75 E.0257
G1 X158.143 Y173.034 E.0245
G1 X158.669 Y173.219 E.0256
G1 X159.212 Y173.279 E.02508
G1 X159.755 Y173.218 E.02512
G1 X160.346 Y173.012 E.02872
G1 X160.346 Y179.126 E.28078
G1 X159.899 Y178.506 F36000
G1 F1800
G1 X159.209 Y178.429 E.03192
G1 X158.696 Y178.487 E.02367
G1 X158.701 Y173.672 E.22118
G1 X159.212 Y173.729 E.0236
G1 X159.899 Y173.651 E.03177
G1 X159.899 Y178.486 E.22207
;WIPE_START
G1 X159.209 Y178.429 E-.10394
G1 X158.696 Y178.487 E-.07731
G1 X158.697 Y177.696 E-.11874
;WIPE_END
G1 Z.65 F36000
G1 X152.822 Y181.265 Z.65
G1 Z.25
G1 E.3 F1800
G1 X141.875 Y181.265 E.50278
G1 X141.875 Y170.893 E.47637
G1 X156.327 Y170.893 E.66378
G1 X156.38 Y171.452 E.02579
G1 X156.596 Y172.081 E.03057
G1 X156.943 Y172.637 E.03008
G1 X157.412 Y173.102 E.03033
G1 X157.562 Y173.196 E.00814
G1 X157.506 Y173.39 E.00926
G1 X152.822 Y173.39 E.21516
G1 X152.822 Y181.245 E.36078
M73 P5 R4
;WIPE_START
G1 X150.822 Y181.249 E-.3
;WIPE_END
G1 Z.65 F36000
G1 X157.299 Y181.853 Z.65
G1 Z.25
G1 E.3 F1800
_DEMON_ADAPTIVE_PA TYPE=ExternalPerimeter
;TYPE:Outer wall
G1 X156.018 Y181.926 E.05891
G1 X154.161 Y181.929 E.08531
G1 X154.161 Y174.729 E.33071
G1 X157.361 Y174.729 E.14698
G1 X157.356 Y180.086 E.24605
G1 X157.299 Y181.086 E.046
G1 X157.299 Y181.833 E.03431
G1 X157.547 Y181.801 F36000
_DEMON_ADAPTIVE_PA TYPE=GapFill
;TYPE:Gap infill
;WIDTH:0.151924
G1 F1800
G1 X157.568 Y181.932 E.00135
;WIDTH:0.17106
G1 X157.59 Y182.064 E.00161
;WIDTH:0.214062
G1 X157.587 Y182.129 E.00108
;WIDTH:0.258252
G1 X157.58 Y182.158 E.00062
;WIDTH:0.298897
G1 X157.573 Y182.186 E.00074
;WIDTH:0.341483
G1 X157.566 Y182.212 E.00079
;WIDTH:0.386011
G1 X157.559 Y182.237 E.00091
;WIDTH:0.406037
G1 X157.532 Y182.239 E.00098
;WIDTH:0.381826
G1 X157.043 Y182.244 E.0165
;WIDTH:0.337679
G1 X156.55 Y182.25 E.01441
;WIDTH:0.291887
G1 X153.938 Y182.267 E.06404
;WIPE_START
G1 X155.938 Y182.254 E-.3
;WIPE_END
G1 Z.65 F36000
G1 X157.559 Y182.237 Z.65
G1 Z.25
G1 E.3 F1800
;WIDTH:0.390181
G1 X157.949 Y182.437 E.0152
;WIPE_START
G1 X157.559 Y182.237 E-.3
;WIPE_END
G1 Z.65 F36000
G1 X157.573 Y180.68 Z.65
G1 Z.25
G1 E.3 F1800
;WIDTH:0.125692
G1 X157.665 Y180.225 E.00344
G1 X157.56 Y180.42 F36000
;WIDTH:0.139941
G1 F1800
G1 X157.939 Y180.081 E.00451
;WIPE_START
G1 X157.56 Y180.42 E-.3
;WIPE_END
G1 Z.65 F36000
G1 X160.391 Y179.426 Z.65
G1 Z.25
G1 E.3 F1800
;WIDTH:0.140381
G1 X160.569 Y179.512 E.00176
G1 X160.748 Y180.407 F36000
;WIDTH:0.146275
G1 F1800
G1 X161.015 Y180.768 E.00428
G1 X160.945 Y180.73 F36000
;WIDTH:0.170856
G1 F1800
G1 X160.912 Y180.533 E.00241
G1 X160.945 Y180.73 F36000
;WIDTH:0.149329
G1 F1800
G1 X160.978 Y180.927 E.00197
;WIDTH:0.120168
G1 X160.986 Y181.094 E.00114
G1 X160.987 Y181.481 F36000
;WIDTH:0.156623
G1 F1800
G1 X160.965 Y181.756 E.00293
G1 X160.868 Y182.429 E.0072
G1 X160.781 Y182.439 F36000
;WIDTH:0.372538
G1 F1800
G1 X160.857 Y182.255 E.00655
G1 X161.015 Y181.741 E.01762
;WIPE_START
G1 X160.857 Y182.255 E-.21872
G1 X160.781 Y182.439 E-.08128
;WIPE_END
G1 Z.65 F36000
G1 X159.765 Y174.797 Z.65
G1 Z.25
G1 E.3 F1800
_DEMON_ADAPTIVE_PA TYPE=BottomSurface
;TYPE:Bottom surface
;WIDTH:0.545588
G1 F5400
G1 X159.035 Y174.068 E.05225
G1 X159.035 Y174.763 E.03518
G1 X159.564 Y175.292 E.03792
G1 X159.564 Y175.988 E.03522
G1 X159.034 Y175.458 E.03796
G1 X159.033 Y176.153 E.03518
G1 X159.564 Y176.684 E.03801
G1 X159.564 Y177.379 E.03522
G1 X159.033 Y176.848 E.03806
G1 X159.032 Y177.543 E.03518
G1 X159.765 Y178.276 E.05249
;WIPE_START
G1 X159.032 Y177.543 E-.15553
G1 X159.033 Y176.848 E-.10426
G1 X159.222 Y177.037 E-.04021
;WIPE_END
G1 Z.65 F36000
G1 X158.478 Y173.504 Z.65
G1 Z.25
G1 E.3 F1800
_DEMON_ADAPTIVE_PA TYPE=GapFill
;TYPE:Gap infill
;WIDTH:0.337487
G1 X158.312 Y173.476 E.00491
;WIDTH:0.378989
G1 X158.147 Y173.448 E.00562
;WIDTH:0.420491
G1 X157.981 Y173.419 E.00634
;WIDTH:0.456407
G1 X157.943 Y173.411 E.00163
G1 X157.822 Y173.1 E.01381
G1 X157.079 Y173.167 F36000
;WIDTH:0.153376
G1 F1800
M73 P6 R4
G1 X156.913 Y172.958 E.00274
G1 X156.602 Y172.343 F36000
_DEMON_ADAPTIVE_PA TYPE=BottomSurface
;TYPE:Bottom surface
;WIDTH:0.507471
G1 F5400
G1 X155.486 Y171.227 E.07366
G1 X154.844 Y171.227 E.02997
G1 X156.487 Y172.87 E.10846
G1 X156.382 Y172.953 E.00625
G1 X156.464 Y173.055 E.00609
G1 X156.03 Y173.055 E.02024
G1 X154.203 Y171.227 E.1207
G1 X153.561 Y171.227 E.02997
G1 X155.388 Y173.055 E.1207
G1 X154.747 Y173.055 E.02997
G1 X152.919 Y171.227 E.1207
G1 X152.277 Y171.227 E.02997
G1 X154.105 Y173.055 E.1207
G1 X153.463 Y173.055 E.02997
G1 X151.635 Y171.228 E.1207
G1 X150.994 Y171.228 E.02997
G1 X152.821 Y173.055 E.1207
G1 X152.487 Y173.055 E.01561
G1 X152.487 Y173.363 E.01436
G1 X150.352 Y171.228 E.14101
G1 X149.71 Y171.228 E.02997
G1 X152.487 Y174.004 E.18339
G1 X152.487 Y174.646 E.02997
G1 X149.068 Y171.228 E.22577
G1 X148.426 Y171.228 E.02997
G1 X152.487 Y175.288 E.26816
G1 X152.487 Y175.93 E.02997
G1 X147.785 Y171.228 E.31054
G1 X147.143 Y171.228 E.02997
G1 X152.487 Y176.572 E.35292
G1 X152.487 Y177.213 E.02997
G1 X146.501 Y171.228 E.39531
G1 X145.859 Y171.228 E.02997
G1 X152.487 Y177.855 E.43769
G1 X152.487 Y178.497 E.02997
G1 X145.218 Y171.228 E.48008
G1 X144.576 Y171.228 E.02997
G1 X152.487 Y179.139 E.52246
G1 X152.487 Y179.781 E.02997
G1 X143.934 Y171.228 E.56484
G1 X143.292 Y171.228 E.02997
G1 X152.487 Y180.422 E.60723
G1 X152.487 Y180.93 E.02372
G1 X152.353 Y180.93 E.00625
G1 X142.65 Y171.228 E.64077
G1 X142.21 Y171.228 E.02059
G1 X142.21 Y171.429 E.00938
G1 X151.711 Y180.93 E.6275
G1 X151.069 Y180.93 E.02997
G1 X142.21 Y172.07 E.58511
G1 X142.21 Y172.712 E.02997
G1 X150.428 Y180.93 E.54272
G1 X149.786 Y180.93 E.02997
G1 X142.21 Y173.354 E.50034
G1 X142.21 Y173.996 E.02997
G1 X149.144 Y180.93 E.45795
G1 X148.502 Y180.93 E.02997
G1 X142.21 Y174.638 E.41557
G1 X142.21 Y175.279 E.02997
M73 P7 R4
G1 X147.86 Y180.93 E.37318
G1 X147.219 Y180.93 E.02997
G1 X142.21 Y175.921 E.3308
G1 X142.21 Y176.563 E.02997
G1 X146.577 Y180.93 E.28841
G1 X145.935 Y180.93 E.02997
G1 X142.21 Y177.205 E.24603
G1 X142.21 Y177.847 E.02997
G1 X145.293 Y180.93 E.20364
G1 X144.651 Y180.93 E.02997
G1 X142.21 Y178.488 E.16126
G1 X142.21 Y179.13 E.02997
G1 X144.01 Y180.93 E.11887
G1 X143.368 Y180.93 E.02997
G1 X142.21 Y179.772 E.07648
G1 X142.21 Y180.414 E.02997
G1 X142.927 Y181.131 E.04736
;WIPE_START
G1 X142.21 Y180.414 E-.15214
G1 X142.21 Y179.772 E-.09627
G1 X142.453 Y180.015 E-.05159
;WIPE_END
G1 Z.65 F36000
G1 X157.754 Y169.902 Z.65
G1 Z.25
G1 E.3 F1800
_DEMON_ADAPTIVE_PA TYPE=GapFill
;TYPE:Gap infill
;WIDTH:0.139408
G1 X157.823 Y169.8 E.00108
;WIDTH:0.152287
G1 X157.891 Y169.699 E.00125
G1 E-.17725
;WIPE_START
G1 X157.823 Y169.8 E-.12275
;WIPE_END
G1 Z.65 F36000
G1 X160.783 Y169.723 Z.65
G1 Z.25
G1 E.3 F1800
;WIDTH:0.345121
G1 X160.857 Y169.903 E.00584
G1 X161.015 Y170.416 E.01609
G1 X160.987 Y170.676 F36000
;WIDTH:0.142491
G1 F1800
G1 X160.965 Y170.401 E.00253
G1 X160.868 Y169.735 E.00615
;WIPE_START
G1 X160.965 Y170.401 E-.21259
G1 X160.987 Y170.676 E-.08741
;WIPE_END
G1 Z.65 F36000
G1 X160.986 Y171.066 Z.65
G1 Z.25
G1 E.3 F1800
;WIDTH:0.125479
G1 X160.979 Y171.22 E.00114
;WIDTH:0.147767
G1 X160.945 Y171.424 E.00201
;WIDTH:0.191447
G1 X160.913 Y171.62 E.00282
G1 X160.754 Y171.742 F36000
;WIDTH:0.142688
G1 F1800
G1 X161.015 Y171.386 E.00404
;WIPE_START
G1 X160.754 Y171.742 E-.3
;WIPE_END
G1 Z.65 F36000
G1 X160.569 Y172.646 Z.65
G1 Z.25
G1 E.3 F1800
;WIDTH:0.140599
G1 X160.389 Y172.732 E.00178
; stop printing object sv08-btt-eddy-mount_rap-v307low-main-body.stl id:1 copy 0
